X:1
T:12
T:12
T:Études enfantines op. 37
T:Henry Lemoine
C:Henry Lemoine
%%score { 1 | 2 }
L:1/8
Q:1/4=118
M:2/4
K:C
V:1 treble nm="Piano" snm="Pno."
V:2 bass 
V:1
"^Allegro moderato"!f! z/"_ben legato" (!1!C/D/E/ !4!F/!1!E/F/G/ | A/G/^F/G/ A/!1!G/A/B/ | %2
 .!4!c/)(!1!c/d/e/ =f/!1!e/f/g/ | a/g/^f/g/ a/!1!g/a/b/ | (!4!c'/)b/a/g/ e'/d'/c'/b/ | %5
 !4!c'/b/a/g/ !4!a/g/^f/e/ | !4!e/d/c/B/ !4!c/B/A/G/ | !4!G/^F/E/D/) (!5!d/c/B/A/ | %8
 G/!3!^F/E/D/) (!5!d/c/B/A/ | G/!3!^F/E/D/) (!5!d/c/B/A/ | G/!3!^F/E/D/) (!5!d/c/B/A/ | %11
 G/!3!^F/E/D/) (!5!d/c/B/A/ | .G) z (!4!=f/e/d/c/ |"_dim." !4!d/c/B/A/ !4!B/A/G/F/ | %14
 !4!A/G/F/E/ !4!G/F/E/D/ | !4!F/E/D/C/ !4!E/D/C/B,/) |!p! z/ (!1!C/D/E/ !4!F/!1!E/F/G/ | %17
 A/G/^F/G/ A/!1!G/A/B/ | .!4!c/)"_cresc."(!1!c/d/e/ =f/!1!e/f/g/ | a/g/^f/g/ a/!1!g/a/b/ | %20
 (!4!c'/)b/a/g/ e'/d'/c'/b/ |!f! !4!c'/b/a/g/ !4!a/g/f/e/ | !4!a/g/f/e/ !4!f/e/d/c/) | %23
 (!4!B/A/G/F/ !3!E/D/C/!2!B,/ | .!3!C/) (!1!C/D/E/ !1!F/G/A/B/ | .c/) (!1!c/d/e/ !1!f/g/a/b/ | %26
 .c'/)!p! (!1!c/d/e/!<(! !1!f/g/a/b/ | .c'/)!8va(! (!1!c'/d'/e'/ !1!f'/g'/a'/b'/!<)! | %28
 .c'')!8va)! z z2 |!f! !>!!fermata![EGc]4 |] %30
V:2
 .[C,E,G,] z z2 | z2 (!>!!5!!2!!1![G,D=F]2 | .!3!!1![CE]) z z2 | z2 (!>!!5!!2!!1![G,D=F]2 | %4
 .!3!!1![CE]) z z2 | !1!!3!!5![C,E,A,]4 | !5!!2!!1![D,G,B,]4- | [D,G,B,]2 (!>!!5!!3!!1![D,^F,C]2 | %8
 .!4!!2![G,B,]) z (!>!!5!!3!!1![D,^F,C]2 | .!4!!2![G,B,]) z (!>!!5!!3!!1![D,^F,C]2 | %10
 .!4!!2![G,B,]) z (!>!!5!!3!!1![D,^F,C]2 | .!4!!2![G,B,]) z (!>!!5!!3!!1![D,^F,C]2 | %12
 .!4!!2![G,B,]) z z2 | z4 | z4 | z2 (!>!!5!!2!!1![G,,D,=F,]2 | .!3!!1![C,E,]) z z2 | %17
 z2 (!>!!5!!2!!1![G,D=F]2 | .!3!!1![CE]) z z2 | z2 (!>!!5!!2!!1![G,D=F]2 | .!3!!1![CE]) z z2 | %21
 (!>!!5!!3!!1![E,G,C]4 | .!4!!2!!1![F,A,D]) z z2 | (!>!!5!!2!!1![G,,D,=F,]4 | %24
 .!3!!1![C,E,]) z (!>!!5!!2!!1![G,,D,=F,]2 | .!3!!1![C,E,]) z (!>!!5!!2!!1![G,,D,=F,]2 | %26
 .!3!!1![C,E,]) z (!>!!5!!2!!1![G,D=F]2 | .!3!!1![CE]) z (!>!!5!!2!!1![G,D=F]2 | %28
 .!3!!1![CE]) z z2 | !>!!fermata![C,G,]4 |] %30

